assets/img/icons/icon-grid2.svg

<?xml version="1.0" encoding="UTF-8" standalone="no"?>
<!DOCTYPE svg PUBLIC "-//W3C//DTD SVG 1.1//EN" "http://www.w3.org/Graphics/SVG/1.1/DTD/svg11.dtd">
<svg width="100%" height="100%" viewBox="0 0 12 12" version="1.1" xmlns="http://www.w3.org/2000/svg" xmlns:xlink="http://www.w3.org/1999/xlink" xml:space="preserve" style="fill-rule:evenodd;clip-rule:evenodd;stroke-linejoin:round;stroke-miterlimit:1.41421;">
    <g transform="matrix(1,0,0,1,-120,-63)">
        <g id="grid" transform="matrix(1,0,0,1,116,59)">
            <path d="M8,4L5,4C4.447,4 4,4.447 4,5L4,8C4,8.552 4.447,9 5,9L8,9C8.553,9 9,8.552 9,8L9,5C9,4.448 8.553,4 8,4ZM15,4L12,4C11.447,4 11,4.447 11,5L11,8C11,8.552 11.447,9 12,9L15,9C15.553,9 16,8.552 16,8L16,5C16,4.448 15.553,4 15,4ZM8,11L5,11C4.447,11 4,11.447 4,12L4,15C4,15.552 4.447,16 5,16L8,16C8.553,16 9,15.552 9,15L9,12C9,11.448 8.553,11 8,11ZM15,11L12,11C11.447,11 11,11.447 11,12L11,15C11,15.552 11.447,16 12,16L15,16C15.553,16 16,15.552 16,15L16,12C16,11.448 15.553,11 15,11Z" style="fill:rgb(119,119,119);fill-rule:nonzero;"/>
        </g>
    </g>
</svg>

<svg viewBox="0 0 12 12" xmlns="http://www.w3.org/2000/svg" fill-rule="evenodd" clip-rule="evenodd" stroke-linejoin="round" stroke-miterlimit="1.414"><g transform="translate(-120 -63)"><path d="M8 4H5a1 1 0 0 0-1 1v3a1 1 0 0 0 1 1h3a1 1 0 0 0 1-1V5a1 1 0 0 0-1-1zm7 0h-3a1 1 0 0 0-1 1v3a1 1 0 0 0 1 1h3a1 1 0 0 0 1-1V5a1 1 0 0 0-1-1zm-7 7H5a1 1 0 0 0-1 1v3a1 1 0 0 0 1 1h3a1 1 0 0 0 1-1v-3a1 1 0 0 0-1-1zm7 0h-3a1 1 0 0 0-1 1v3a1 1 0 0 0 1 1h3a1 1 0 0 0 1-1v-3a1 1 0 0 0-1-1z" fill="#777" fill-rule="nonzero" transform="translate(116 59)" id="grid"/></g></svg>
